example/assets/icons/timed_metadata.svg

<svg width="24" height="24" viewBox="0 0 24 24" fill="none" xmlns="http://www.w3.org/2000/svg">
<path fill-rule="evenodd" clip-rule="evenodd" d="M20 6.80001C20 6.55001 19.8831 6.31438 19.6841 6.1631C19.4851 6.01182 19.2268 5.96228 18.9859 6.02919L4.58588 10.0292C4.23963 10.1254 4 10.4406 4 10.8V13.2C4 13.575 4.26043 13.8996 4.62646 13.981L6.18827 14.328C6.14562 14.6147 6.14193 14.9064 6.17778 15.1951C6.22967 15.613 6.36336 16.0166 6.57122 16.3828C6.77908 16.7491 7.05704 17.0708 7.38923 17.3296C7.72141 17.5884 8.10132 17.7792 8.50726 17.8912C8.9132 18.0032 9.33723 18.0341 9.75512 17.9822C10.173 17.9303 10.5766 17.7967 10.9428 17.5888C11.3091 17.3809 11.6308 17.103 11.8896 16.7708C12.1349 16.4559 12.3192 16.098 12.4331 15.7158L19.0265 17.181C19.2633 17.2336 19.5113 17.1759 19.7006 17.024C19.8899 16.8722 20 16.6427 20 16.4V6.80001ZM10.8633 15.3669L7.75807 14.6769C7.74987 14.7836 7.75234 14.8912 7.76559 14.998C7.79159 15.2074 7.85857 15.4096 7.96272 15.5931C8.06686 15.7766 8.20613 15.9377 8.37257 16.0674C8.53901 16.1971 8.72936 16.2927 8.93275 16.3488C9.13614 16.4049 9.34859 16.4204 9.55798 16.3944C9.76736 16.3684 9.96957 16.3014 10.1531 16.1973C10.3366 16.0931 10.4977 15.9539 10.6274 15.7874C10.7269 15.6597 10.8064 15.5179 10.8633 15.3669ZM5.6 12.5583V11.4081L18.4 7.85252V15.4027L5.6 12.5583Z" fill="white"/>
</svg>

<svg xmlns="http://www.w3.org/2000/svg" width="24" height="24" fill="none" viewBox="0 0 24 24"><path fill="#fff" fill-rule="evenodd" d="M20 6.8a.8.8 0 0 0-1.014-.77l-14.4 4A.8.8 0 0 0 4 10.8v2.4c0 .375.26.7.626.781l1.562.347a3.207 3.207 0 0 0 6.245 1.388l6.593 1.465A.8.8 0 0 0 20 16.4V6.8Zm-9.137 8.567-3.105-.69a1.608 1.608 0 0 0 3.105.69ZM5.6 12.558v-1.15l12.8-3.555v7.55L5.6 12.558Z" clip-rule="evenodd"/></svg>
